X:329
T:El Calvariu (CT 486)
R:Relixosu
C:Tradicional
S:Música Tradicional Asturiana, (C) Tello & Tito. Asturies, 2001.
S:http://pagina.de/MusTradAst <telloytito@asturies.org>
N:Calvario que canta en la iglesia el pueblo de Llamo, ayuntamiento de Riosa, durante los días de Cuaresma.
N:Cantan dos coros, compuestos indistintamente por hombres y mujeres, de los cuales el primero entona las distintas estrofas del Calvario, y el segundo contesta invariablementes con el estribillo transcrito.
A:Asturies
O:Llamo (Riosa)
Z:Cancioneru de Torner 486
M:3/4
L:1/8
Q:1/4=72
K:Gm
"coro 1º"
|GB B>G BB|(c2 B4)|AB c>B ce|d2 c4|
GB B>G BB|(c2 B4)|AB c>B ce|(d2 c4)|B>A GF GB|A2 G4|
"coro 2º"
GB B>G BB|(c2 B4)|AB c>B ce|d2 c4|
GB B>G BB|(c2 B4)|B>A GF GB|A2 G4|
"coro 1º"
GB B>G BB|c2 B4|AB c>B ce|(d2 c4)|
GB B>G BB|c2 B4|AB c>B ce|d2 c4|B>A GF GB|(A2 G4)|
"coro 2º"
GB B>G BB|(c2 B4)|
W:"Coro 1º"
W:En la primera estación
W:atento quiero que notes
W:con cuánta resinación
W:sufrí por tu redención
W:más de cuatro mil azotes.
W:
W:"Coro 2º"
W:Lágrimas de corazón
W:de puro dolor lloremos,
W:para que de La Pasión
W:el fruto de amor logremos.
W:
W:"Coro 1º"
W:Homre: mira y considera,
W:movido de compasión
W:en esta estación primera
W:me sentencian a que muera,
W:entre uno y otro ladrón.
W:
W:"Coro 2º"
W:Lágrimas de corazón
W:de puro dolor lloremos,
W:para que de La Pasión
W:el fruto de amor logremos.
W:
